X:3279
T:Killmoulis, The
O:england
R:Double Jig
D:Touchstone, "The New Land"
M:6/8
L:1/8
K:D
A|~d3 cdc|BcB ABA|GAG ~F3|FED E2D|
~f3 efe|d2F FEF|~G3 BGB|AFD D2e|
~f3 efe|d2F FEF|~G3 BGB|ABd e2d|
~f3 efe|d2F FEF|~G3 BGB|AFD D2e||
|:~f3 fed|~g3 gfe|~f3 fed|dcB A2e|
~f3 fed|~g3 gfe|~f3 afd|cBc d2A:|||
|:dfa dfa|cdc cBA|gfe fed|Bee e2A|
dfa dfa|cdc cBA|gfe fed|cBc D2:||


